src/assets/mh-icons/Helm_Rank_01.svg

<?xml version="1.0" encoding="UTF-8" standalone="no"?>
<svg
   width="100%"
   height="100%"
   viewBox="0 0 64 64"
   version="1.1"
   xml:space="preserve"
   style="fill-rule:evenodd;clip-rule:evenodd;stroke-linejoin:round;stroke-miterlimit:2;"
   id="svg13165"
   sodipodi:docname="Helm_Rank_01.svg"
   inkscape:version="1.2.2 (732a01da63, 2022-12-09)"
   xmlns:inkscape="http://www.inkscape.org/namespaces/inkscape"
   xmlns:sodipodi="http://sodipodi.sourceforge.net/DTD/sodipodi-0.dtd"
   xmlns="http://www.w3.org/2000/svg"
   xmlns:svg="http://www.w3.org/2000/svg"><defs
   id="defs13169">
        
        
        
    </defs><sodipodi:namedview
   id="namedview13167"
   pagecolor="#505050"
   bordercolor="#eeeeee"
   borderopacity="1"
   inkscape:showpageshadow="0"
   inkscape:pageopacity="0"
   inkscape:pagecheckerboard="0"
   inkscape:deskcolor="#505050"
   showgrid="false"
   inkscape:zoom="16.046875"
   inkscape:cx="32.062317"
   inkscape:cy="31.968841"
   inkscape:window-width="3440"
   inkscape:window-height="1377"
   inkscape:window-x="-8"
   inkscape:window-y="-8"
   inkscape:window-maximized="1"
   inkscape:current-layer="svg13165" />
    <path
   id="background"
   style="display:inline;fill-opacity:0.76;fill:none;stroke:#000000;stroke-opacity:1;stroke-width:4;stroke-dasharray:none"
   d="m 29,6 c -2.999997,0 -7,5 -7,5 l -4,2 c -0.999999,0 -3,2.000001 -3,3 v 4 10 H 12.996094 C 11.992095,30 12,31 12,31 v 2 l 12,12 v 7 h -3 c -0.551999,0 -1,0.448001 -1,1 v 5 h 2.5 3 2 3 5 3 3 3 1.5 v -5 c 0,-0.551999 -0.448001,-1 -1,-1 H 43 V 41 L 53,31 V 27 24 18.5 16 C 53,16 46.499996,6 42.5,6 Z" />
<g
   id="g13657"
   transform="matrix(1,0,0,1,0,-896)">
        <path
   id="base"
   d="m 24,950 v -15 l -9,-9 v -10 h 3 v -7 l 8,-4 h 19 l 8,7 v 11 l -10,10 v 17 h 2 v 3.5 l -0.5,0.5 h -22 L 22,953.5 V 950 Z"
   style="display:inline;fill:#1f1f1f;fill-opacity:1"
   inkscape:label="base" />
        <path
   id="path13653"
   d="M41.5,954L38.5,954L38.5,952C38.5,951.448 38.052,951 37.5,951L36.5,951C35.948,951 35.5,951.448 35.5,952L35.5,954L30.5,954L30.5,952C30.5,951.448 30.052,951 29.5,951L28.5,951C27.948,951 27.5,951.448 27.5,952L27.5,954L25.5,954L25.5,952C25.5,951.448 25.052,951 24.5,951L23.5,951C22.948,951 22.5,951.448 22.5,952L22.5,954L20,954L20,949C20,948.448 20.448,948 21,948L45,948C45.552,948 46,948.448 46,949L46,954L44.5,954L44.5,952C44.5,951.448 44.052,951 43.5,951L42.5,951C41.948,951 41.5,951.448 41.5,952L41.5,954ZM25,943L29,943L32,940L41,940C42,940 42,941 42,941L42,946L25,946L25,943ZM12,927C12,927 11.992,926 12.996,926L38,926L38,918C38,918 38,917 39,917L46,917C47,917 47,918 47,918L47,923C47,924 46,924 46,924L44,924L27,941L24,941L12,929L12,927ZM34,938L44,928L46,928L50,924L50,921C50,921 50,920 51,920L53,920L53,927L42,938L34,938ZM43.5,919C44.328,919 45,919.672 45,920.5C45,921.328 44.328,922 43.5,922C42.672,922 42,921.328 42,920.5C42,919.672 42.672,919 43.5,919ZM35,917C35,917 38,913 42.5,913C47,913 50,917 50,917L53,914.5C53,914.5 47,909 42.5,909L18,909C17,909 15,911 15,912L15,916C15,916 15,917 16,917L35,917ZM22,907C22,907 26,902 29,902L42.5,902C46.5,902 53,912 53,912C53,912 45.5,907 42.5,907L22,907Z"
   style="fill:rgb(190,190,190);" />
        <path
   id="path13655"
   d="M33,945C33,944.448 32.552,944 32,944L31,944C30.448,944 30,944.448 30,945L30,946L33,946L33,945ZM37,945C37,944.448 36.552,944 36,944L35,944C34.448,944 34,944.448 34,945L34,946L37,946L37,945ZM41,945C41,944.448 40.552,944 40,944L39,944C38.448,944 38,944.448 38,945L38,946L41,946L41,945ZM29,945C29,944.448 28.552,944 28,944L27,944C26.448,944 26,944.448 26,945L26,946L29,946L29,945Z"
   style="fill:rgb(136,136,136);" />
    </g></svg>

<?xml version="1.0" encoding="UTF-8" standalone="no"?>
<svg
   width="100%"
   height="100%"
   viewBox="0 0 64 64"
   version="1.1"
   xml:space="preserve"
   style="fill-rule:evenodd;clip-rule:evenodd;stroke-linejoin:round;stroke-miterlimit:2;"
   id="svg13165"
   sodipodi:docname="Helm_Rank_01.svg"
   inkscape:version="1.2.2 (732a01da63, 2022-12-09)"
   xmlns:inkscape="http://www.inkscape.org/namespaces/inkscape"
   xmlns:sodipodi="http://sodipodi.sourceforge.net/DTD/sodipodi-0.dtd"
   xmlns="http://www.w3.org/2000/svg"
   xmlns:svg="http://www.w3.org/2000/svg"><defs
   id="defs13169">
        
        
        
    </defs><sodipodi:namedview
   id="namedview13167"
   pagecolor="#505050"
   bordercolor="#eeeeee"
   borderopacity="1"
   inkscape:showpageshadow="0"
   inkscape:pageopacity="0"
   inkscape:pagecheckerboard="0"
   inkscape:deskcolor="#505050"
   showgrid="false"
   inkscape:zoom="16.046875"
   inkscape:cx="32"
   inkscape:cy="31.968841"
   inkscape:window-width="3440"
   inkscape:window-height="1377"
   inkscape:window-x="-8"
   inkscape:window-y="-8"
   inkscape:window-maximized="1"
   inkscape:current-layer="svg13165" />
    <path
   id="background"
   style="display:inline;fill-opacity:0.76;fill:none;stroke:#000000;stroke-opacity:1;stroke-width:4;stroke-dasharray:none"
   d="m 29,6 c -2.999997,0 -7,5 -7,5 l -4,2 c -0.999999,0 -3,2.000001 -3,3 v 4 10 H 12.996094 C 11.992095,30 12,31 12,31 v 2 l 12,12 v 7 h -3 c -0.551999,0 -1,0.448001 -1,1 v 5 h 2.5 3 2 3 5 3 3 3 1.5 v -5 c 0,-0.551999 -0.448001,-1 -1,-1 H 43 V 41 L 53,31 V 27 24 18.5 16 C 53,16 46.499996,6 42.5,6 Z" />
<g
   id="g13657"
   transform="matrix(1,0,0,1,0,-896)">
        <path
   id="path13651"
   d="M24,950L24,935L15,926L15,916L18,916L18,909L26,905L45,905L53,912L53,923L43,933L43,950L45,950L45,953.5L44.5,954L22.5,954L22,953.5L22,950L24,950Z"
   style="fill-opacity:1;fill:#1f1f1f" />
        <path
   id="path13653"
   d="M41.5,954L38.5,954L38.5,952C38.5,951.448 38.052,951 37.5,951L36.5,951C35.948,951 35.5,951.448 35.5,952L35.5,954L30.5,954L30.5,952C30.5,951.448 30.052,951 29.5,951L28.5,951C27.948,951 27.5,951.448 27.5,952L27.5,954L25.5,954L25.5,952C25.5,951.448 25.052,951 24.5,951L23.5,951C22.948,951 22.5,951.448 22.5,952L22.5,954L20,954L20,949C20,948.448 20.448,948 21,948L45,948C45.552,948 46,948.448 46,949L46,954L44.5,954L44.5,952C44.5,951.448 44.052,951 43.5,951L42.5,951C41.948,951 41.5,951.448 41.5,952L41.5,954ZM25,943L29,943L32,940L41,940C42,940 42,941 42,941L42,946L25,946L25,943ZM12,927C12,927 11.992,926 12.996,926L38,926L38,918C38,918 38,917 39,917L46,917C47,917 47,918 47,918L47,923C47,924 46,924 46,924L44,924L27,941L24,941L12,929L12,927ZM34,938L44,928L46,928L50,924L50,921C50,921 50,920 51,920L53,920L53,927L42,938L34,938ZM43.5,919C44.328,919 45,919.672 45,920.5C45,921.328 44.328,922 43.5,922C42.672,922 42,921.328 42,920.5C42,919.672 42.672,919 43.5,919ZM35,917C35,917 38,913 42.5,913C47,913 50,917 50,917L53,914.5C53,914.5 47,909 42.5,909L18,909C17,909 15,911 15,912L15,916C15,916 15,917 16,917L35,917ZM22,907C22,907 26,902 29,902L42.5,902C46.5,902 53,912 53,912C53,912 45.5,907 42.5,907L22,907Z"
   style="fill:rgb(190,190,190);" />
        <path
   id="path13655"
   d="M33,945C33,944.448 32.552,944 32,944L31,944C30.448,944 30,944.448 30,945L30,946L33,946L33,945ZM37,945C37,944.448 36.552,944 36,944L35,944C34.448,944 34,944.448 34,945L34,946L37,946L37,945ZM41,945C41,944.448 40.552,944 40,944L39,944C38.448,944 38,944.448 38,945L38,946L41,946L41,945ZM29,945C29,944.448 28.552,944 28,944L27,944C26.448,944 26,944.448 26,945L26,946L29,946L29,945Z"
   style="fill:rgb(136,136,136);" />
    </g></svg>
